X: 94
M: 6/8
L: 1/8
K: Eb
|: B2 B G2 E | A2 c B3 | B2 B G3 E | A2 c B2- B | e2 e
d2 d | c- c c B2 B | A2 A G2 G | F2 F E2 z :| c2 c c2 c |


